lib/flags/m/PHL.svg

<svg xmlns="http://www.w3.org/2000/svg" fill="none" viewBox="0 0 20 15"><mask id="PHL_svg__a" width="20" height="15" x="0" y="0" mask-type="alpha" maskUnits="userSpaceOnUse"><path fill="#fff" d="M0 0H20V15H0z"/></mask><g mask="url(#PHL_svg__a)"><path fill="#BF2714" fill-rule="evenodd" d="M0 0V15H20V0H0Z" clip-rule="evenodd"/><mask id="PHL_svg__b" width="20" height="15" x="0" y="0" mask-type="alpha" maskUnits="userSpaceOnUse"><path fill="#fff" fill-rule="evenodd" d="M0 0V15H20V0H0Z" clip-rule="evenodd"/></mask><g mask="url(#PHL_svg__b)"><path fill="#3D58DB" fill-rule="evenodd" d="M0 -1.25V7.5H20V-1.25H0Z" clip-rule="evenodd"/></g><path fill="#F7FCFF" fill-rule="evenodd" d="M0 0V15L11.25 7.5L0 0Z" clip-rule="evenodd"/><mask id="PHL_svg__c" width="12" height="15" x="0" y="0" mask-type="alpha" maskUnits="userSpaceOnUse"><path fill="#fff" fill-rule="evenodd" d="M0 0V15L11.25 7.5L0 0Z" clip-rule="evenodd"/></mask><g fill="#FECA00" fill-rule="evenodd" clip-rule="evenodd" mask="url(#PHL_svg__c)"><path d="M8.50315 6.82507 9.30058 7.13259 9.77502 6.57426 9.78761 7.32098 10.5215 7.5597 9.74902 7.82191 9.79993 8.5081 9.29113 7.98246 8.49137 8.13458 8.96355 7.52918 8.50315 6.82507zM1.00315 10.5751 1.73613 10.8991 2.27502 10.3243 2.22316 11.0875 3.02152 11.3097 2.18457 11.5885 2.29993 12.2581 1.7172 11.7796.991365 11.8846 1.3991 11.2957 1.00315 10.5751zM1.00315 3.07507 1.81425 3.37396 2.27502 2.82426 2.30128 3.56235 3.02152 3.8097 2.26269 4.06328 2.29993 4.7581 1.79532 4.25443.991365 4.38458 1.47722 3.77055 1.00315 3.07507zM5.07593 9.08301C5.93887 9.08301 6.63843 8.38345 6.63843 7.52051 6.63843 6.65756 5.93887 5.95801 5.07593 5.95801 4.21298 5.95801 3.51343 6.65756 3.51343 7.52051 3.51343 8.38345 4.21298 9.08301 5.07593 9.08301z"/><path d="M4.89123 5.14987L4.97519 6.15362C4.98322 6.21458 5.03011 6.26314 5.09074 6.27329C5.16692 6.28604 5.239 6.23462 5.25175 6.15845L5.36257 5.1581C5.36452 5.14647 5.3656 5.13471 5.3658 5.12291C5.3681 4.99131 5.26328 4.88276 5.13167 4.88046C5.11988 4.88026 5.10809 4.88093 5.09639 4.88247C4.9659 4.89966 4.87404 5.01938 4.89123 5.14987ZM4.62991 5.63498L4.75967 6.07162C4.77171 6.11216 4.81219 6.13725 4.85797 6.12918C4.8955 6.12031 4.91873 6.0827 4.90986 6.04518L4.80631 5.60695C4.7944 5.55656 4.74557 5.52393 4.69445 5.5322C4.69104 5.53275 4.68766 5.53352 4.68434 5.53451C4.64157 5.54722 4.6172 5.5922 4.62991 5.63498ZM5.33167 6.08982C5.3215 6.12701 5.34341 6.16541 5.38469 6.17657C5.42607 6.18525 5.4674 6.16158 5.48085 6.12149L5.62577 5.68964C5.63997 5.64733 5.61718 5.60153 5.57488 5.58733C5.5716 5.58623 5.56825 5.58534 5.56486 5.58467C5.51406 5.57462 5.46412 5.60553 5.45046 5.65548L5.33167 6.08982ZM6.62987 5.65096L5.9313 6.42234C5.89388 6.47112 5.8927 6.53862 5.9284 6.58867C5.97324 6.65155 6.06057 6.66616 6.12345 6.62132L6.95734 5.99007C6.96694 5.98322 6.97603 5.97567 6.98451 5.96748C7.07919 5.87604 7.08183 5.72517 6.99039 5.63048C6.9822 5.622 6.97339 5.61413 6.96403 5.60695C6.8596 5.52683 6.70999 5.54654 6.62987 5.65096ZM6.41736 7.28843L7.46046 7.2077C7.59095 7.19051 7.71068 7.28237 7.72786 7.41287C7.7294 7.42456 7.73007 7.43635 7.72987 7.44815C7.72757 7.57975 7.61902 7.68458 7.48742 7.68228C7.47562 7.68207 7.46386 7.68099 7.45223 7.67904L6.41253 7.56499C6.33636 7.55224 6.28495 7.48016 6.2977 7.40399C6.30785 7.34335 6.35641 7.29646 6.41736 7.28843ZM6.95872 8.9498L6.14864 8.24454C6.09986 8.20712 6.03237 8.20594 5.98232 8.24164C5.91944 8.28648 5.90482 8.37381 5.94967 8.43669L6.61961 9.27727C6.62646 9.28687 6.63401 9.29595 6.6422 9.30444C6.73364 9.39912 6.88452 9.40175 6.9792 9.31032C6.98768 9.30213 6.99555 9.29332 7.00273 9.28396C7.08285 9.17953 7.06315 9.02992 6.95872 8.9498ZM5.28255 8.7306L5.3444 9.78374C5.36159 9.91424 5.26973 10.034 5.13923 10.0511C5.12754 10.0527 5.11575 10.0534 5.10396 10.0532C4.97235 10.0509 4.86753 9.94231 4.86982 9.8107C4.87003 9.79891 4.87111 9.78715 4.87306 9.77551L5.00599 8.72577C5.01874 8.6496 5.09083 8.59819 5.167 8.61094C5.22763 8.62109 5.27453 8.66965 5.28255 8.7306ZM3.63813 9.29955L4.32644 8.46188C4.36387 8.41311 4.36504 8.34561 4.32935 8.29556C4.2845 8.23268 4.19717 8.21806 4.1343 8.26291L3.31066 8.96045C3.30106 8.96729 3.29198 8.97485 3.28349 8.98304C3.18881 9.07447 3.18618 9.22535 3.27761 9.32003C3.2858 9.32852 3.29462 9.33638 3.30397 9.34356C3.4084 9.42369 3.55801 9.40398 3.63813 9.29955ZM3.84038 7.59579L2.79088 7.68228C2.66038 7.69947 2.54066 7.60761 2.52347 7.47711C2.52193 7.46542 2.52126 7.45363 2.52147 7.44183C2.52376 7.31023 2.63231 7.2054 2.76392 7.2077C2.77571 7.20791 2.78747 7.20899 2.79911 7.21094L3.84521 7.31923C3.92138 7.33198 3.9728 7.40407 3.96004 7.48024C3.94989 7.54087 3.90133 7.58777 3.84038 7.59579ZM3.21896 5.95137L4.1091 6.63968C4.15788 6.67711 4.22537 6.67828 4.27543 6.64259C4.3383 6.59774 4.35292 6.51041 4.30808 6.44754L3.55807 5.6239C3.55122 5.6143 3.54367 5.60522 3.53547 5.59673C3.44404 5.50205 3.29316 5.49942 3.19848 5.59085C3.18999 5.59904 3.18213 5.60786 3.17495 5.61721C3.09483 5.72164 3.11453 5.87125 3.21896 5.95137ZM5.83689 6.21196L6.05389 5.81145C6.07515 5.77222 6.12419 5.75765 6.16342 5.7789C6.16646 5.78055 6.1694 5.78239 6.1722 5.78442C6.2142 5.81472 6.22565 5.87231 6.19844 5.91637L5.96179 6.29947C5.94153 6.33227 5.89851 6.34244 5.8657 6.32217C5.82762 6.29551 5.81674 6.24914 5.83689 6.21196ZM6.93601 6.94315L6.49936 7.07291C6.45883 7.08495 6.43373 7.12543 6.4418 7.17121C6.45067 7.20874 6.48828 7.23197 6.52581 7.2231L6.96403 7.11955C7.01443 7.10764 7.04706 7.05881 7.03878 7.00769C7.03823 7.00428 7.03746 7.0009 7.03647 6.99758C7.02376 6.95481 6.97878 6.93044 6.93601 6.94315ZM6.35902 8.15013L6.75953 8.36713C6.79876 8.38839 6.81334 8.43743 6.79208 8.47666C6.79043 8.4797 6.78859 8.48264 6.78657 8.48544C6.75627 8.52744 6.69867 8.53889 6.65461 8.51168L6.27152 8.27503C6.23871 8.25477 6.22854 8.21175 6.24881 8.17894C6.27547 8.14086 6.32184 8.12999 6.35902 8.15013ZM5.62783 9.24925L5.49807 8.8126C5.48603 8.77207 5.44555 8.74697 5.39977 8.75504C5.36224 8.76391 5.33901 8.80152 5.34788 8.83905L5.45144 9.27727C5.46335 9.32767 5.51217 9.3603 5.56329 9.35202C5.56671 9.35147 5.57008 9.3507 5.5734 9.34972C5.61617 9.337 5.64055 9.29202 5.62783 9.24925ZM4.42085 8.67226L4.20385 9.07277C4.1826 9.112 4.13356 9.12658 4.09432 9.10532C4.09128 9.10367 4.08835 9.10183 4.08554 9.09981C4.04354 9.06951 4.03209 9.01191 4.05931 8.96785L4.29595 8.58476C4.31622 8.55195 4.35924 8.54179 4.39204 8.56205C4.43012 8.58871 4.441 8.63508 4.42085 8.67226ZM3.32174 7.94108L3.75838 7.81132C3.79891 7.79927 3.82401 7.75879 3.81594 7.71301C3.80707 7.67549 3.76946 7.65225 3.73193 7.66112L3.29371 7.76468C3.24332 7.77659 3.21069 7.82541 3.21896 7.87653C3.21951 7.87995 3.22028 7.88332 3.22127 7.88664C3.23398 7.92942 3.27896 7.95379 3.32174 7.94108ZM3.89872 6.7341L3.49821 6.51709C3.45898 6.49584 3.44441 6.4468 3.46566 6.40756C3.46731 6.40452 3.46915 6.40159 3.47118 6.39878C3.50147 6.35678 3.55907 6.34533 3.60313 6.37255L3.98623 6.60919C4.01903 6.62946 4.0292 6.67248 4.00893 6.70528C3.98227 6.74336 3.9359 6.75424 3.89872 6.7341ZM6.22849 6.6293C6.195 6.6484 6.18333 6.69105 6.20463 6.72813C6.22776 6.76353 6.27372 6.77601 6.31158 6.75718L6.71942 6.55429C6.75937 6.53441 6.77565 6.48591 6.75577 6.44596C6.75423 6.44286 6.75249 6.43987 6.75057 6.43699C6.72175 6.39396 6.66459 6.38051 6.61961 6.40617L6.22849 6.6293ZM6.39442 7.69793C6.40557 7.65665 6.44397 7.63474 6.48117 7.64491L6.91551 7.7637C6.96546 7.77736 6.99636 7.8273 6.98631 7.8781C6.98564 7.88149 6.98475 7.88484 6.98365 7.88812C6.96945 7.93042 6.92365 7.95321 6.88135 7.93901L6.44949 7.79409C6.40941 7.78064 6.38574 7.73931 6.39442 7.69793ZM5.94169 8.54173C5.92258 8.50824 5.87994 8.49658 5.84286 8.51787C5.80746 8.541 5.79497 8.58696 5.81381 8.62482L6.0167 9.03266C6.03657 9.07261 6.08507 9.08889 6.12503 9.06901C6.12812 9.06747 6.13112 9.06573 6.13399 9.06381C6.17702 9.035 6.19048 8.97783 6.16482 8.93285L5.94169 8.54173ZM4.87306 8.70766C4.91434 8.71881 4.93624 8.75721 4.92607 8.79441L4.80728 9.22875C4.79362 9.2787 4.74369 9.30961 4.69289 9.29955C4.68949 9.29888 4.68615 9.29799 4.68287 9.29689C4.64056 9.28269 4.61777 9.23689 4.63197 9.19459L4.77689 8.76274C4.79034 8.72265 4.83167 8.69898 4.87306 8.70766ZM4.02925 8.25493C4.06275 8.23582 4.07441 8.19318 4.05311 8.1561C4.02998 8.1207 3.98402 8.10821 3.94616 8.12705L3.53832 8.32994C3.49837 8.34981 3.4821 8.39831 3.50197 8.43827C3.50351 8.44136 3.50525 8.44436 3.50718 8.44723C3.53599 8.49026 3.59315 8.50372 3.63813 8.47806L4.02925 8.25493ZM3.86333 7.1863C3.85217 7.22758 3.81377 7.24948 3.77658 7.23931L3.34224 7.12052C3.29229 7.10686 3.26138 7.05693 3.27143 7.00613C3.2721 7.00273 3.27299 6.99939 3.27409 6.99611C3.28829 6.9538 3.33409 6.93102 3.3764 6.94521L3.80825 7.09013C3.84834 7.10358 3.87201 7.14491 3.86333 7.1863ZM4.31606 6.34249C4.33516 6.37599 4.3778 6.38765 4.41488 6.36635C4.45029 6.34323 4.46277 6.29726 4.44394 6.2594L4.24105 5.85157C4.22117 5.81161 4.17267 5.79534 4.13272 5.81521C4.12962 5.81675 4.12662 5.81849 4.12375 5.82042C4.08072 5.84923 4.06727 5.90639 4.09293 5.95137L4.31606 6.34249Z"/></g></g></svg>

<svg xmlns="http://www.w3.org/2000/svg" fill="none" viewBox="0 0 20 15"><mask id="PHL_svg__a" width="20" height="15" x="0" y="0" maskUnits="userSpaceOnUse"><path fill="#fff" d="M0 0h20v15H0z"/></mask><g mask="url(#PHL_svg__a)"><path fill="#BF2714" fill-rule="evenodd" d="M0 0v15h20V0H0z" clip-rule="evenodd"/><mask id="PHL_svg__b" width="20" height="15" x="0" y="0" maskUnits="userSpaceOnUse"><path fill="#fff" fill-rule="evenodd" d="M0 0v15h20V0H0z" clip-rule="evenodd"/></mask><g mask="url(#PHL_svg__b)"><path fill="#3D58DB" fill-rule="evenodd" d="M0-1.25V7.5h20v-8.75H0z" clip-rule="evenodd"/></g><path fill="#F7FCFF" fill-rule="evenodd" d="M0 0v15l11.25-7.5L0 0z" clip-rule="evenodd"/><mask id="PHL_svg__c" width="12" height="15" x="0" y="0" maskUnits="userSpaceOnUse"><path fill="#fff" fill-rule="evenodd" d="M0 0v15l11.25-7.5L0 0z" clip-rule="evenodd"/></mask><g fill="#FECA00" fill-rule="evenodd" clip-rule="evenodd" mask="url(#PHL_svg__c)"><path d="M8.503 6.825l.798.308.474-.559.013.747.733.239-.772.262.05.686-.508-.526-.8.153.473-.606-.46-.704zm-7.5 3.75l.733.324.539-.575-.052.764.799.222-.837.278.115.67-.583-.478-.726.105.408-.59-.396-.72zm0-7.5l.811.299.461-.55.026.738.72.248-.758.253.037.695-.505-.504-.804.13.486-.613-.474-.696zm4.073 6.008a1.563 1.563 0 100-3.125 1.563 1.563 0 000 3.125z"/><path d="M4.891 5.15l.084 1.004a.14.14 0 00.277.004l.11-1a.238.238 0 10-.471-.008zm-.261.485l.13.437c.012.04.052.065.098.057a.07.07 0 00.052-.084l-.104-.438a.099.099 0 00-.122-.073.08.08 0 00-.054.1zm.702.455c-.01.037.011.075.053.087a.083.083 0 00.096-.056l.145-.431a.08.08 0 00-.061-.105.1.1 0 00-.115.07l-.118.435zm1.298-.44l-.699.772a.14.14 0 00.192.2l.834-.632a.238.238 0 10-.327-.34zm-.213 1.638l1.043-.08a.238.238 0 11-.008.471l-1.04-.114a.14.14 0 01.005-.277zM6.96 8.95l-.81-.706a.14.14 0 00-.2.193l.67.84a.238.238 0 10.34-.327zm-1.676-.22l.061 1.054a.238.238 0 11-.47-.009l.132-1.05a.14.14 0 01.277.006zm-1.645.57l.688-.838a.14.14 0 00-.192-.2l-.823.698a.239.239 0 10.327.34zm.202-1.704l-1.05.086a.238.238 0 11.01-.471l1.045.108a.14.14 0 01-.005.277zM3.22 5.95l.89.689a.14.14 0 00.2-.193l-.75-.823a.238.238 0 10-.34.327zm2.618.26l.217-.4a.08.08 0 01.118-.027c.042.03.054.088.026.132l-.236.383a.07.07 0 01-.096.023.084.084 0 01-.03-.11zm1.099.732l-.437.13a.084.084 0 00-.057.098.07.07 0 00.084.052l.438-.104a.099.099 0 00.072-.121.08.08 0 00-.1-.055zM6.359 8.15l.4.217a.08.08 0 01.028.118.099.099 0 01-.132.027l-.383-.237a.07.07 0 01-.023-.096.084.084 0 01.11-.029zm-.731 1.1l-.13-.437a.084.084 0 00-.098-.058.07.07 0 00-.052.084l.103.438a.099.099 0 00.122.073.08.08 0 00.055-.1zM4.42 8.671l-.217.4a.08.08 0 01-.118.028.099.099 0 01-.027-.132l.237-.383a.07.07 0 01.096-.023.084.084 0 01.029.11zm-1.1-.731l.437-.13a.084.084 0 00.058-.098.07.07 0 00-.084-.052l-.438.104a.099.099 0 00-.073.122.08.08 0 00.1.054zm.58-1.206l-.4-.217a.08.08 0 01-.028-.118.099.099 0 01.132-.027l.383.237a.07.07 0 01.023.096.084.084 0 01-.11.029zm2.33-.105c-.034.02-.046.062-.024.1a.084.084 0 00.107.028l.407-.203a.08.08 0 00.032-.117.099.099 0 00-.131-.03l-.391.222zm.165 1.069c.012-.041.05-.063.087-.053l.435.119a.099.099 0 01.068.124.08.08 0 01-.103.051l-.432-.145a.083.083 0 01-.055-.096zm-.452.844c-.02-.034-.062-.045-.1-.024a.083.083 0 00-.028.107l.203.408a.08.08 0 00.117.03.099.099 0 00.03-.13l-.222-.391zm-1.069.166a.07.07 0 01.053.086l-.119.435a.099.099 0 01-.124.068.08.08 0 01-.051-.102l.145-.432a.083.083 0 01.096-.055zm-.844-.453c.034-.02.045-.062.024-.099a.083.083 0 00-.107-.029l-.408.203a.08.08 0 00-.03.117.099.099 0 00.13.031l.391-.223zm-.166-1.069a.07.07 0 01-.086.053l-.435-.119a.099.099 0 01-.068-.124.08.08 0 01.102-.05l.432.144c.04.014.064.055.055.096zm.453-.844a.07.07 0 00.099.024.083.083 0 00.029-.107l-.203-.408a.08.08 0 00-.117-.03.099.099 0 00-.031.13l.223.391z"/></g></g></svg>
